img/popular-5.svg

<svg xmlns="http://www.w3.org/2000/svg" width="56" height="98"><path d="M54.494 32.197H52.98v-4.64c0-5.052-4.087-9.186-9.082-9.186H9.082C4.086 18.372 0 22.505 0 27.557v42.868C0 75.477 4.087 79.6 9.083 79.6h34.815c4.995 0 9.082-4.133 9.082-9.185V67h1.515c.415 0 .757-.344.757-.764v-13.78c0-.42-.342-.766-.757-.766H52.98v-8.788h1.515c.832 0 1.514-.688 1.514-1.53v-7.654a1.53 1.53 0 0 0-1.515-1.531zm-20.412-3.1c2.926 0 5.3 2.398 5.3 5.358s-2.373 5.358-5.3 5.358-5.298-2.398-5.298-5.358 2.372-5.358 5.298-5.358zm-15.137 0c2.925 0 5.298 2.398 5.298 5.358s-2.373 5.358-5.298 5.358-5.298-2.398-5.298-5.358 2.372-5.358 5.298-5.358zm-13.648 20.3c0-2.96 2.37-5.358 5.298-5.358s5.298 2.4 5.298 5.358-2.373 5.358-5.298 5.358-5.298-2.4-5.298-5.358zm13.648 19.497c-2.926 0-5.298-2.398-5.298-5.358s2.372-5.358 5.298-5.358 5.298 2.398 5.298 5.358-2.373 5.358-5.298 5.358zm1.5-19.903c0-3.382 2.7-6.124 6.055-6.124s6.055 2.742 6.055 6.124-2.7 6.124-6.055 6.124-6.055-2.742-6.055-6.124zm13.647 19.903c-2.926 0-5.298-2.398-5.298-5.358s2.372-5.358 5.298-5.358 5.3 2.398 5.3 5.358-2.373 5.358-5.3 5.358zm8.302-14.138c-2.927 0-5.298-2.4-5.298-5.358s2.37-5.358 5.298-5.358 5.298 2.4 5.298 5.358-2.372 5.358-5.298 5.358zM9.646 15.3h33.687a1.28 1.28 0 0 0 1.306-1.514L43.023 3.028C42.77 1.362 41.2 0 39.506 0H13.474c-1.686 0-3.268 1.362-3.517 3.028L8.342 13.795a1.28 1.28 0 0 0 1.304 1.515zm33.687 67.37H9.646a1.28 1.28 0 0 0-1.304 1.516l1.615 10.767c.25 1.666 1.832 3.028 3.516 3.028h26.032c1.684 0 3.266-1.362 3.517-3.026l1.615-10.77a1.28 1.28 0 0 0-1.304-1.516z" fill="#363636"/></svg>

<?xml version="1.0" encoding="utf-8"?>
<!-- Generator: Adobe Illustrator 15.0.0, SVG Export Plug-In . SVG Version: 6.00 Build 0)  -->
<!DOCTYPE svg PUBLIC "-//W3C//DTD SVG 1.1//EN" "http://www.w3.org/Graphics/SVG/1.1/DTD/svg11.dtd">
<svg version="1.1" id="Layer_1" xmlns="http://www.w3.org/2000/svg" xmlns:xlink="http://www.w3.org/1999/xlink" x="0px" y="0px"
	 width="56px" height="98px" viewBox="0 0 56 98" enable-background="new 0 0 56 98" xml:space="preserve">
<g>
	<path fill="#363636" d="M54.494,32.197h-1.515v-4.64c0-5.052-4.087-9.186-9.082-9.186H9.082C4.086,18.372,0,22.505,0,27.557v42.868
		c0,5.052,4.087,9.185,9.083,9.185h34.815c4.995,0,9.082-4.133,9.082-9.185V67.01h1.515c0.415,0,0.757-0.344,0.757-0.764V52.467
		c0-0.421-0.342-0.766-0.757-0.766h-1.515v-8.788h1.515c0.832,0,1.514-0.688,1.514-1.531v-7.654
		C56.008,32.886,55.326,32.197,54.494,32.197z M34.082,29.088c2.926,0,5.299,2.398,5.299,5.358s-2.373,5.358-5.299,5.358
		s-5.298-2.398-5.298-5.358S31.156,29.088,34.082,29.088z M18.945,29.088c2.925,0,5.298,2.398,5.298,5.358s-2.373,5.358-5.298,5.358
		c-2.926,0-5.298-2.398-5.298-5.358S16.019,29.088,18.945,29.088z M5.297,49.397c0-2.959,2.371-5.358,5.298-5.358
		c2.926,0,5.298,2.399,5.298,5.358c0,2.959-2.373,5.358-5.298,5.358C7.668,54.756,5.297,52.356,5.297,49.397z M18.945,68.894
		c-2.926,0-5.298-2.398-5.298-5.358s2.372-5.358,5.298-5.358c2.925,0,5.298,2.398,5.298,5.358S21.87,68.894,18.945,68.894z
		 M20.435,48.991c0-3.382,2.711-6.124,6.055-6.124c3.344,0,6.055,2.742,6.055,6.124s-2.711,6.124-6.055,6.124
		C23.146,55.114,20.435,52.373,20.435,48.991z M34.082,68.894c-2.926,0-5.298-2.398-5.298-5.358s2.372-5.358,5.298-5.358
		s5.299,2.398,5.299,5.358S37.008,68.894,34.082,68.894z M42.384,54.756c-2.927,0-5.298-2.399-5.298-5.358
		c0-2.959,2.371-5.358,5.298-5.358c2.926,0,5.298,2.399,5.298,5.358C47.682,52.356,45.31,54.756,42.384,54.756z"/>
	<path fill="#363636" d="M9.646,15.31h33.687c0.843,0,1.432-0.681,1.306-1.514L43.023,3.028c0,0,0-0.001-0.002-0.002
		C42.771,1.362,41.189,0,39.506,0H13.474c-1.686,0-3.268,1.362-3.517,3.028L8.342,13.795C8.217,14.628,8.803,15.31,9.646,15.31z"/>
	<path fill="#363636" d="M43.333,82.671H9.646c-0.843,0-1.429,0.683-1.304,1.516l1.615,10.767c0.25,1.666,1.832,3.028,3.516,3.028
		h26.032c1.684,0,3.266-1.362,3.517-3.026c0-0.001,0-0.001,0-0.002l1.615-10.767C44.765,83.354,44.176,82.671,43.333,82.671z"/>
</g>
</svg>
